X:1
T:Charles (Parker), 87.87
T:Charles (Parker), 87.87
T:James Parker, 1878
T:Public Domain Courtesy of the Cyber Hymnal™
C:James Parker, 1878
Z:Public Domain
Z:Courtesy of the Cyber Hymnal™
%%score ( 1 2 ) ( 3 4 )
L:1/8
Q:1/4=112
M:2/4
K:G
V:1 treble 
V:2 treble 
V:3 bass 
V:4 bass 
V:1
 [GB]2 ([FA]G) | [GB]2 (AG) | [DG]2 (FG) | ([GB]2 [FA]2) | [Gc]2 [GB]2 | [Ge]2 [FA]2 | [GB]2 (dc) | %7
 [GB]4 | D2 (GF) | [DF]2 E2 | [A,E]2 (AG) | ([DG]2 [DF]2) | [^DF]2 [EG]2 | (AB) (ce) | %14
 [DG]2 [DF]2 | [DG]6 |] %16
V:2
 x4 | x2 D2 | x2 D2 | x4 | x4 | x4 | x2 F2 | x4 | D2 D2 | x2 (CB,) | x2 ^C2 | x4 | x4 | E2 E2 | %14
 x4 | x6 |] %16
V:3
 [G,D]2 (CB,) | [G,D]2 ([F,C][G,B,]) | [B,D]2 ([A,C][G,B,]) | ([D,D]2 [D,D]2) | [E,C]2 (DB,) | %5
 [^C,A,]2 D2 | [B,,D]2 [A,,D]2 | [G,,D]4 | [B,,G,]2 [B,,G,]2 | [C,G,]2 [C,G,]2 | %10
 [^C,A,]2 [A,,A,]2 | ([D,B,]2 [D,A,]2) | [B,,B,]2 B,2 | ([C,A,][B,,^G,]) A,2 | [D,B,]2 (A,C) | %15
 [G,,B,]6 |] %16
V:4
 x2 G,2 | x4 | x4 | x4 | x2 D,2 | x2 (D,=C,) | x4 | x4 | x4 | x4 | x4 | x4 | x2 (E,D,) | %13
 x2 (A,,C,) | x2 D,2 | x6 |] %16

